X: 1
T: Festival Waltz
C: attr. Kenny Baker
%D:1972
R: waltz
B: "The Waltz Book II" p.18-19
Z: 2022 John Chambers <jc:trillian.mit.edu>
M: 3/4
L: 1/8
K: A
%%continueall
"^A"|: ECB, |\
| "A"A,2 C2 E2 | "/G#"G2 F2 E2 | "/F#"F2 G2 A2 | "/E"C3 E CB, |\
| "A"A,2 C2 E2 | "Adim"G2 F2 E2 | "Bm7"F2 E2 C2 | "E7"(3CDC B,4 |
| "Bm7"B, C3 D2 | "E7"E2 F2 G2 | "Bm7"A2 G2 F2 | "E7"G4 F2 |\
| "E"E B,3 F2 | "Eaug7"E =C3 F2 | "A"E C3 D2 | C4 (3C=CB, ||
| "A"A,2 C2 E2 | "/G#"G2 F2 E2 | "/F#"F2 G2 A2 | "/E"C3 E CB, |\
| A,C EF =Gc | "A7"B4 A2 | "D"a f3 fa | f4 (3f=g^g |
| "D"a2 f2 A2 | "Dm7"a2 =f2 A2 | "A"a2 e2 (3c=cB | "F#m7"A E2 F =G^G |\
| "Bm7"[e6G6] | "E7"[c4E3] (3BcB | "A"A4- AB | A3 B ce |]
"^B"[|\
| "A"a3 g ab | "/G#"g3 f ga | "/F#"f3 a (3f/a/f/e | "/E"c6 |\
| "A"f2 e2 A2 | "F#m"E2 A2 cd | "Bm7"e d3 BG | "E7"E6 |
| "Bm7"b2 g3 a | "E7"g3 e fg | "Bm7"b2 g3 a | "E7"g4 fa |\
| "E7"e B3 f2 | "Eaug7"e =c3 f2 | "A"e c4 d | c3 A ce |
| "A"a3 g ab | "/G#"g3 f ga | "/F#"f3 a fe | "/E"c3 A BA |\
| "A7"[A=G] [B3G3] [_B2G2] | [A2=G2] B2 A2 | "D"[AF] [d4F4] e | [d6F6] |
| a2f2 A2 | "Dm7"a2 =f2 A2 | "A"a2 e2 (3c=cB | "Fm7"A E2 E F=G |\
| "Bm7"[e6G6] | "E7"[c4E4] (3BcB |1 "A"A4- AB | A3 :|2 "A"A2 c2 e2 | a3 |]
%%begintext align
%% The Waltz Book has the B part repeated, but some sessions have agreed that
%% the endings should be swapped for B's repeat.  Kenny Baker didn't repeat
%% either part, and the repeats above work with his recordings. (And he often
%% ends with a downward arpggio to the low A.)
%%endtext
